dist/img/svg/twitter-icon.svg

<svg width="22" height="17" viewBox="0 0 22 17" fill="none" xmlns="http://www.w3.org/2000/svg">
<path fill-rule="evenodd" clip-rule="evenodd" d="M21.2138 2.42967C20.4408 2.75167 19.6098 2.96667 18.7388 3.06467C19.6288 2.56467 20.3118 1.77267 20.6338 0.830668C19.7998 1.29267 18.8778 1.62867 17.8958 1.81067C17.1108 1.02467 15.9898 0.534668 14.7508 0.534668C12.3708 0.534668 10.4398 2.34367 10.4398 4.57367C10.4398 4.89067 10.4778 5.19967 10.5518 5.49467C6.96981 5.32567 3.79381 3.71767 1.66781 1.27467C1.29681 1.87167 1.08481 2.56467 1.08481 3.30567C1.08481 4.70567 1.84581 5.94367 3.00181 6.66767C2.29581 6.64567 1.63181 6.46467 1.04981 6.16167C1.04981 6.17967 1.04981 6.19467 1.04981 6.21367C1.04981 8.17067 2.53481 9.80267 4.50681 10.1737C4.14581 10.2657 3.76381 10.3137 3.37181 10.3137C3.09381 10.3137 2.82381 10.2897 2.56081 10.2437C3.10881 11.8467 4.70081 13.0157 6.58681 13.0487C5.11181 14.1317 3.25381 14.7767 1.23381 14.7767C0.885811 14.7767 0.542811 14.7577 0.205811 14.7207C2.11281 15.8657 4.37881 16.5357 6.81281 16.5357C14.7408 16.5357 19.0758 10.3797 19.0758 5.04267C19.0758 4.86667 19.0708 4.69367 19.0628 4.51967C19.9048 3.94967 20.6358 3.23867 21.2138 2.42967Z" fill="white"/>
</svg>

<svg width="22" height="17" fill="none" xmlns="http://www.w3.org/2000/svg"><path fill-rule="evenodd" clip-rule="evenodd" d="M21.214 2.43a9.062 9.062 0 01-2.475.635c.89-.5 1.573-1.292 1.895-2.234a9.05 9.05 0 01-2.738.98A4.437 4.437 0 0014.75.535c-2.38 0-4.311 1.809-4.311 4.039 0 .317.038.626.112.92-3.582-.168-6.758-1.776-8.884-4.22a3.829 3.829 0 00-.583 2.032c0 1.4.76 2.638 1.917 3.362a4.527 4.527 0 01-1.952-.506v.052c0 1.957 1.485 3.589 3.457 3.96a4.696 4.696 0 01-1.946.07c.548 1.603 2.14 2.772 4.026 2.805a9.023 9.023 0 01-5.353 1.728c-.348 0-.691-.02-1.028-.056a12.81 12.81 0 006.607 1.815c7.928 0 12.263-6.156 12.263-11.493 0-.176-.005-.35-.013-.523a8.503 8.503 0 002.15-2.09z" fill="#fff"/></svg>
